!!!OTL: Yao zi ge
!!!ARE: Asia, China,ÿTaiwan
!! IV, 638
!!!SCT: C1705
!!!YEM: Copyright 1995, estate of Helmut Schaffrath.
**kern
*ICvox
*Ivox
*M2/4
*k[f#c#g#]
*A:
{4bb
8aa
8ccc#
=1
2bb
=2
8bb
8ccc#
8bb
8aa
=3
2ff#}
=4
{4ff#
4bb
=5
4bb
4ff#
=6
4ff#
8ff#
8aa
=7
8bb
8ccc#
8bb
8aa
=8
8ff#
8bb
8.aa
16ff#
=9
2ee}
==
!!!AGN: Xiaodiao
!!!AMT: simple duple
!!!AIN: vox
!!!EED: Helmut Schaffrath
!!!EEV: 1.0
*-
